X:1
T:Only Waiting
T:James Henry Fillmore, Sr.
T:Only Waiting
T:Public Domain
T:Public Domain
T:Public Domain
C:James Henry Fillmore, Sr.
Z:Public Domain
%%score ( 1 2 ) ( 3 4 )
L:1/8
M:4/4
K:Ab
V:1 treble 
V:2 treble 
V:3 bass 
V:4 bass 
V:1
 [CE]2 [CE]2 [=B,=D][CE][EA][E_B] | ([Ec]>[DB]) [CA]6 | [DA]2 [DA]2 [FB][FA][EG][DF] | [CE]6 z2 | %4
w: 1.~I am wait- ing for the|morn- * ing|Of the bless- èd day to|dawn,|
w: 2.~I am wait- ing, worn and|wea- * ry|With the bat- tle and the|strife,|
w: 3.~Wait- ing, hop- ing, trust- ing|ev- * er,|For a home of bound- less|love;|
w: 4.~Hop- ing soon to meet the|loved * ones|Where the “ma- ny man- sions”|be;|
 [CE]2 [CE]2 [=B,=D][CE][EA][E_B] | [Ec]2 [Ae]4 [Fd][FB] | [EA]2 (GA) [Ac]3 [EB] | [EA]6 || %8
w: When the sor- row and the|sad- ness Of this|change- ful * life are||
w: Hop- ing when the war- fare’s|o- ver To re-|ceive a * crown of|I|
w: Like a pil- grim, look- ing|for- ward To the|land of * bliss a-||
w: List- ’ning for the hap- py|wel- come Of my|Sav- ior * call- ing||
"^Refrain" [Ec][Ec] | (EEEE [EB])[Ac][Gd][Bd] | [Bd] [Ac]4 z | [Ec][=EB] | %12
w: ||||
w: am wait-|ing, * * * * on- ly wait-|* Till|this wea-|
w: ||||
w: ||||
 (FFFF [FA])[FA][=EG][FA] | [GB]6 [Ac][Ad] | (AAGG [Ae])[EA][EB][_Gc] | ([Fd]FFF F)F[Fc][FB] | %16
w: ||||
w: ry * * * * life is o’er;|ly * wait-|ing * * * * for my wel-|From * * * * my Sav- ior|
w: ||||
w: ||||
 [EA][CE][=B,=D][CE] [Ec]3 [_D_B] | [CA]6 z2 |] %18
w: ||
w: * the o- ther shore. *||
w: ||
w: ||
V:2
 x8 | x8 | x8 | x8 | x8 | x8 | x2 E2 x4 | x6 || x2 | B4- x4 | x6 | x2 | A4- x4 | x8 | e4- x4 | %15
w: ||||||gone.|||||||||
w: ||||||life.|||ing,|||On-||come,|
w: ||||||bove.|||||||||
w: ||||||me.|||||||||
 x d4 x3 | x8 | x8 |] %18
w: |||
w: on|||
w: |||
w: |||
V:3
 [A,,A,]2 [A,,A,]2 [A,,A,][A,,A,][C,A,][E,G,] | A,2 [A,,E,]6 | %2
w: ~ ~ ~ ~ ~ ~|~ ~|
 [D,F,]2 [D,F,]2 [D,A,][D,A,][D,A,][D,A,] | [A,,A,]6 z2 | %4
w: ~ ~ ~ ~ ~ ~|~|
 [A,,A,]2 [A,,A,]2 [A,,A,][A,,A,][C,A,][E,G,] | A,2 [A,C]4 [D,B,][D,D] | %6
w: ~ ~ ~ ~ ~ ~|~ ~ ~ ~|
 [E,C]2 (B,C) [E,E]3 [E,D] | [A,,C]6 || A,A, | [E,G,][E,G,][E,G,][E,G,] [E,G,][E,A,][E,B,][E,E] | %10
w: ~ ~ * ~ I|wait-|ing, wait-|ing, onl- ly wait- ing, on- ly wait-|
 [A,E][A,E][A,E][A,E] [A,E][A,E] | [A,E][G,D] | [F,C][F,C][F,C][F,C] [F,C][F,C][F,C][F,C] | %13
w: ing, Till this wea- ry, wea-|ry, wea-|ry— Till this wea- ry life is o’er;|
 [E,E][E,E][E,D][E,C] [E,B,]2 A,[A,B,] | [A,C][A,C][E,D][E,D] [A,,C][A,,C][A,,B,][A,,A,] | %15
w: On- ly wait- ing, wait- ing, wait-|for my wel- come, for my wel- come|
 [D,A,][D,A,][D,A,][D,A,] [D,A,][D,A,][D,A,][D,B,] | [E,C][E,C][E,A,][E,A,] [E,A,]3 [E,G,] | %17
w: ||
 [A,,E,A,]6 z2 |] %18
w: |
V:4
 x8 | A,2 x6 | x8 | x8 | x8 | A,2 x6 | x2 E,2 x4 | x6 || A,A, | x8 | x6 | x2 | x8 | x6 A, x | x8 | %15
w: |~||||~|am||ing, wait-|||||ing,||
 x8 | x8 | x8 |] %18
w: |||

